!!!COA:	Josquin des Prez
!!!CDT:	~1450-1521/08/27
!!!OPR:	Missa Di dadi
!!!ONM:	3
!!!OTL:	Credo
!!!AGN:	Mass; Credo
!!!SCT:	NJE 9.3
!!!SCA:	New Josquin Edition 9.3
!!!voices:	4
!!!voices-OPR:	4
**kern	**kern	**kern	**kern
*staff4	*staff3	*staff2	*staff1
*Ivox	*Ivox	*Ivox	*Ivox
*I"Bassus	*I"Tenor	*I"Altus	*I"Superius
*I'B	*I'T	*I'A	*I'S
*clefF4	*clefGv2	*clefGv2	*clefG2
*k[b-]	*k[b-]	*k[b-]	*k[b-]
*M3/1	*M3/1	*M3/1	*M3/1
*met(O)	*met(O)	*met(O)	*met(O)
=1-	=1-	=1-	=1-
!!section: Patrem
!!!OMD: Patrem
!	!LO:TX:Z=10:X=-40:t=Canon&colon; Two dice with faces six over one	!	!
*	*rscale:1/6	*	*
!	!LO:N:vis=1	!	!
0.r	0.r	1.G	0.g
.	.	2A/	.
.	.	1B-	.
=2	=2-	=2	=2
0.r	0.ryy	1c	1e
.	.	1A	1.f
.	.	[1d	.
.	.	.	4g/
.	.	.	4a/
=3	=3-	=3	=3
!	!LO:N:vis=1	!	!
0.r	0.r	1d]	1.b-
.	.	0G	.
.	.	.	4a/
.	.	.	4g/
.	.	.	1b-
=4	=4-	=4	=4
0.r	0.ryy	0c	2a/
.	.	.	1g
.	.	.	2f/
.	.	1c	1e
=5	=5-	=5	=5
!	!LO:N:vis=1	!	!
0.r	0.r	2.B-\	0d
.	.	4A/	.
.	.	2G/	.
.	.	2F/	.
.	.	2G/	1d
.	.	2D/	.
=6	=6-	=6	=6
0.r	0.ryy	0.G	2d/
.	.	.	2e-i/
.	.	.	2d/
.	.	.	2c/
.	.	.	2d/
.	.	.	2B-/
=7	=7	=7	=7
!	!LO:N:vis=1	!	!
1r	0.r	0F	0.A
1r	.	.	.
1D	.	2r	.
.	.	[2d\	.
=8	=8-	=8	=8
2D\	0.ryy	2d\]	0.r
2E-i\	.	2c\	.
2D\	.	2B-\	.
2C/	.	1A	.
2D\	.	.	.
2BB-/	.	2G/	.
=9	=9-	=9	=9
!	!LO:N:vis=1	!	!
1AA	0.r	2A/	0.r
.	.	2F/	.
1r	.	1E	.
[1GG	.	1r	.
=10	=10-	=10	=10
2GG/]	0.ryy	1.D	0.r
2AA/	.	.	.
2BB-/	.	.	.
2C/	.	2E/	.
2D\	.	2F/	.
2BB-/	.	2G/	.
=11	=11-	=11	=11
!	!LO:N:vis=1	!	!
2C/	0.r	2A/	0.r
2D\	.	2F/	.
2GG/	.	2G/	.
2.D\	.	2A/	.
.	.	2D/	.
4C/	.	.	.
2AA/	.	2F/	.
=12	=12-	=12	=12
2BB-/	0.ryy	2G/	0.r
2.C/	.	2.A/	.
4BB-/	.	4G/	.
2GG/	.	1G	.
1AA	.	.	.
.	.	2F#i/	.
=13	=13	=13	=13
!	!LO:N:vis=1	!	!
[0.GG	[y0.G	0G	1d
.	.	.	1d
.	.	1D	1d
=14	=14-	=14	=14
0.GG]	0.G]yy	1E	1.g
.	.	1D	.
.	.	.	2f/
.	.	[1G	2e/
.	.	.	2d/
=15	=15-	=15	=15
0GG	0.B-	2G/]	1d
.	.	2F/	.
.	.	2E/	0g
.	.	2D/	.
1GG	.	1D	.
=16	=16-	=16	=16
0AA	0.c	0A	1f
.	.	.	0e
1AA	.	1A	.
=17	=17-	=17	=17
!	!LO:N:vis=1	!	!
0BB-	[y0.d	1F	0d
.	.	0D	.
1BB-	.	.	1b-
=18	=18-	=18	=18
1GG	0.d]yy	1G	1b-
0D	.	2F/	2a/
.	.	2D/	1a
.	.	1F	.
.	.	.	4g/
.	.	.	4f/
=19	=19	=19	=19
0C	0.r	1G	0e
.	.	2A/	.
.	.	2G/	.
[1BB-	.	2.B-\	1d
.	.	4c\	.
=20	=20-	=20	=20
1BB-]	0.B-	[0.d	1r
[0GG	.	.	1r
.	.	.	1b-
=21	=21-	=21	=21
1GG]	0.G	1d]	1.b-
0E-i	.	1B-	.
.	.	.	2a/
.	.	1c	1g
=22	=22-	=22	=22
1D	0.A	1d	1f
0C	.	1r	0e
.	.	1E	.
=23	=23-	=23	=23
!	!LO:N:vis=1	!	!
1BB-	[y0.B-	1F	0d
[0GG	.	0G	.
.	.	.	[1g
=24	=24-	=24	=24
1GG]	0.B-]yy	0d	1g]
0G	.	.	0b-
.	.	1G	.
=25	=25	=25	=25
1F	0.c	2A/	1a
.	.	2F/	.
0E	.	0G	0g
=26	=26-	=26	=26
!	!LO:N:vis=1	!	!
[0.D	[y0.d	1A	0f
.	.	2B-\	.
.	.	1A	.
.	.	.	2.f/
.	.	2D/	.
.	.	.	4g/
=27	=27-	=27	=27
0.D]	0.d]yy	2.F/	2a/
.	.	.	2b-\
.	.	4G/	.
.	.	2A/	2a/
.	.	2B-\	1f
.	.	1A	.
.	.	.	2d/
=28	=28-	=28	=28
0GG	0.B-	0G	1d
.	.	.	1.e
[1D	.	[1F	.
.	.	.	2d/
=29	=29-	=29	=29
!	!LO:N:vis=1	!	!
1D]	[y0.A	1F]	1.d
0AA	.	0E	.
.	.	.	2c#i/
.	.	.	2c#i/
.	.	.	2Bni/
=30	=30-	=30	=30
0F	0.A]yy	0D	0.d
1D	.	2r	.
.	.	[2D/	.
=31	=31	=31	=31
!	!LO:N:vis=1	!	!
1GG	0.r	2D/]	0.r
.	.	2D/	.
2GG/	.	2D/	.
2GG/	.	2E/	.
2AA/	.	2F/	.
2BB-/	.	2G/	.
=32	=32-	=32	=32
2C/	0.ryy	4G/	0.r
.	.	2c\	.
4C/	.	.	.
2F\	.	4c\	.
.	.	2c\	.
4F\	.	.	.
2F\	.	2A/	.
2D\	.	2B-\	.
2E\	.	2c\	.
=33	=33-	=33	=33
!	!LO:N:vis=1	!	!
2F\	0.r	1d	0.r
1G	.	.	.
.	.	4G/	.
.	.	4A/	.
4D\	.	4B-\	.
4E\	.	4c\	.
4F\	.	4A/	.
4G\	.	4B-\	.
4E\	.	4c\	.
4F\	.	4A/	.
=34	=34-	=34	=34
4G\	0.ryy	4B-\	0.r
4E\	.	4c\	.
4F\	.	1d	.
4G\	.	.	.
2D\	.	.	.
2G\	.	1d	.
2F\	.	.	.
2G\	.	[2d\	.
=35	=35-	=35	=35
!	!LO:N:vis=1	!	!
1D	0.r	2d\]	0.r
.	.	2B-\	.
2.F\	.	2A/	.
.	.	2c\	.
4E\	.	.	.
2D\	.	2B-\	.
2C/	.	[2A/	.
=36	=36-	=36	=36
1D	0.ryy	4A/]	0.r
.	.	4G/	.
.	.	4F/	.
.	.	4E/	.
2BB-/	.	2D/	.
2GG/	.	1G	.
1AA	.	.	.
.	.	2F#i/	.
=37	=37	=37	=37
!	!LO:N:vis=1	!	!
0.GG	0.r	0G	1r
.	.	.	2d/
.	.	.	2e/
.	.	2D/	2d/
.	.	2E/	2g/
=38	=38-	=38	=38
0.r	0.ryy	2D/	2f/
.	.	2G/	2d/
.	.	2F/	1d
.	.	1.D	.
.	.	.	2.f/
.	.	.	4g/
=39	=39-	=39	=39
!	!LO:N:vis=1	!	!
0.r	0.r	2.F/	2a/
.	.	.	2d/
.	.	4G/	.
.	.	2A/	2c/
.	.	2D/	2f/
.	.	2.A/	2e/
.	.	.	[2a/
.	.	4B-\	.
=40	=40-	=40	=40
0.r	0.ryy	2c\	4a/]
.	.	.	4g/
.	.	1d	2f/
.	.	.	1e
.	.	2c\	.
.	.	2.d\	2r
.	.	.	[2d/
.	.	4c\	.
=41	=41-	=41	=41
!	!LO:N:vis=1	!	!
0.r	0.r	2B-\	2d/]
.	.	2A/	2c/
.	.	2B-\	2d/
.	.	2G/	2B-/
.	.	2.F/	2A/
.	.	.	[2d/
.	.	4G/	.
=42	=42-	=42	=42
0.r	0.ryy	2B-\	2d/]
.	.	1A	2c/
.	.	.	2d/
.	.	1G	2B-/
.	.	.	1A
.	.	2F#i/	.
=43	=43	=43	=43
!	!LO:N:vis=1	!	!
0GG	[y0.G	0G	1r
.	.	.	0B-
1GG	.	1D	.
=44	=44-	=44	=44
1GG	0.G]yy	1D	1B-
0C	.	0E	1c
.	.	.	2G/
.	.	.	2c/
=45	=45-	=45	=45
!	!LO:N:vis=1	!	!
1.D	[y0.F	1D	2B-/
.	.	.	1A
.	.	1.A	.
2D\	.	.	1.d
1D	.	.	.
.	.	2A/	.
=46	=46-	=46	=46
2r	0.F]yy	0.A	2c/
1D	.	.	2d/
.	.	.	2A/
2D\	.	.	2d/
2AA/	.	.	2c/
2D\	.	.	2f/
=47	=47-	=47	=47
2C/	0.A	1r	2e/
1F	.	.	1a
.	.	1r	.
2E\	.	.	2g/
1D	.	1F	2f/
.	.	.	2e/
=48	=48-	=48	=48
2GG/	0.B-	1G	0.d
2G\	.	.	.
2F\	.	2D/	.
2E\	.	2E/	.
1D	.	2.F/	.
.	.	4G/	.
=49	=49	=49	=49
0.C	0.c	1A	0.r
.	.	0G	.
=50	=50-	=50	=50
1GG	0.B-	2r	1d
.	.	2G/	.
2GG/	.	2G/	2d/
2GG/	.	2G/	2d/
2GG/	.	2G/	2d/
2GG/	.	2D/	2d/
=51	=51-	=51	=51
!	!LO:N:vis=1	!	!
2C/	[y0.G	2E-i/	2c/
2GG/	.	2D/	2B-/
2C/	.	2E-i/	2c/
2C/	.	2C/	2e-i/
1BB-	.	1D	1d
=52	=52-	=52	=52
1C	0.G]yy	1.E-i	1c
0GG	.	.	1B-
.	.	2D/	.
.	.	[1D	2r
.	.	.	2d/
=53	=53-	=53	=53
!	!LO:N:vis=1	!	!
1r	[y0.A	1D]	2f/
.	.	.	2d/
1D	.	1r	2.f/
.	.	.	4g/
2D\	.	1d	1a
[2D\	.	.	.
=54	=54-	=54	=54
2D\]	0.A]yy	2d\	2a/
2AA/	.	1c	2.cc\
1C	.	.	.
.	.	.	4b-\
.	.	2c\	4a/
.	.	.	4g/
1D	.	2A/	2.f#i/
.	.	[2d\	.
.	.	.	4e/
=55	=55	=55	=55
!	!LO:N:vis=00	!	!
0GG;	[0.Gl	4d\]	0g;
.	.	4c\	.
.	.	4B-\	.
.	.	4A/	.
.	.	1B-;	.
1r	.	1r	1r
=56	=56-	=56	=56
1GG;	0.G_	1D;	1B-;
1C;	.	1E-i;	1c;
1GG;	.	1D;	1d;
=57	=57-	=57	=57
2.E-\	0.G_	1.C	2.g/
4D\	.	.	4f/
2C/	.	.	2e-i/
2BB-/	.	2D/	2d/
1C	.	1E-i	1c
=58	=58-	=58	=58
0.GGl	0.G]	0.Dl	0.B-l
*	*rscale:1	*	*
!!LO:LB:i:g=z
=59||	=59||	=59||	=59||
*>B	*>B	*>B	*>B
!!section: Crucifixus
!!!OMD: Crucifixus
*M2/1	*M2/1	*M2/1	*M2/1
*met(C2)	*met(O)	*met(C2)	*met(C2)
!!primary-mensuration: met(C2)
!	!LO:TX:Z=10:X=-40:t=Canon&colon; Two dice with face six over one	!	!
*	*rscale:1/12	*	*
!	!LO:N:vis=1	!	!
0r	0r	0r	0g
=60	=60-	=60	=60
0r	0ryy	0r	1d
.	.	.	[1g
=61	=61-	=61	=61
0r	0ryy	0G	1g]
.	.	.	1g
=62	=62-	=62	=62
0r	0ryy	1D	1f
.	.	[1G	1g
=63	=63-	=63	=63
!	!LO:N:vis=1	!	!
0r	0r	1G]	1.b-
.	.	1G	.
.	.	.	4a/
.	.	.	4g/
=64	=64-	=64	=64
0r	0ryy	1F	1a
.	.	1G	2g/
.	.	.	[2b-\
=65	=65-	=65	=65
0r	0ryy	1.B-	2b-\]
.	.	.	4a/
.	.	.	4g/
.	.	.	[1f
.	.	4A/	.
.	.	4G/	.
=66	=66-	=66	=66
0r	0ryy	1A	2f/]
.	.	.	4e/
.	.	.	4f/
.	.	2G/	2g/
.	.	[2B-\	[2d/
=67	=67-	=67	=67
!	!LO:N:vis=1	!	!
0r	0r	2B-\]	2d/]
.	.	4A/	4c/
.	.	4G/	4B-/
.	.	[1F	1A
=68	=68-	=68	=68
0r	0ryy	2F/]	[0d
.	.	2G/	.
.	.	2D/	.
.	.	[2G/	.
=69	=69-	=69	=69
0r	0ryy	2G/]	0d_
.	.	2F#i/	.
.	.	[1G	.
=70	=70-	=70	=70
0r	0ryy	1G]	0d]
.	.	1D	.
=71	=71	=71	=71
!	!LO:N:vis=1	!	!
0r	0r	1.F	1A
.	.	.	[1c
.	.	2G/	.
=72	=72-	=72	=72
0r	0ryy	2A/	2c/]
.	.	2B-\	2d/
.	.	[1c	2e/
.	.	.	2f/
=73	=73-	=73	=73
0r	0ryy	2c\]	1.g
.	.	2B-\	.
.	.	1G	.
.	.	.	2f/
=74	=74-	=74	=74
0r	0ryy	2B-\	1d
.	.	2c\	.
.	.	[1d	2f/
.	.	.	2g/
=75	=75-	=75	=75
!	!LO:N:vis=1	!	!
0r	0r	2d\]	[0a
.	.	2c\	.
.	.	2d\	.
.	.	[2c\	.
=76	=76-	=76	=76
0r	0ryy	2c\]	1a]
.	.	4B-\	.
.	.	4A/	.
.	.	1G	1b-
=77	=77-	=77	=77
0r	0ryy	1F	1a
.	.	1G	2b-\
.	.	.	2g/
=78	=78-	=78	=78
0r	0ryy	1D	2b-\
.	.	.	1a
.	.	2r	.
.	.	2D/	2f/
=79	=79-	=79	=79
!	!LO:N:vis=1	!	!
0r	0r	2E/	2g/
.	.	2F/	2f/
.	.	2G/	[1d
.	.	2A/	.
=80	=80-	=80	=80
0r	0ryy	2B-\	2d/]
.	.	2c\	2e/
.	.	[1d	2f/
.	.	.	2g/
=81	=81-	=81	=81
0r	0ryy	1d]	2a/
.	.	.	1b-
.	.	1c	.
.	.	.	[2a/
=82	=82-	=82	=82
0r	0ryy	1B-	2a/]
.	.	.	2g/
.	.	1A	2f/
.	.	.	[2e/
=83	=83	=83	=83
!	!LO:N:vis=1	!	!
0r	0r	2G/	2e/]
.	.	2F/	1d
.	.	1E	.
.	.	.	2c/
=84	=84-	=84	=84
0r	0ryy	2.D/	2B-/
.	.	.	1A
.	.	4C/	.
.	.	2D/	.
.	.	2E/	2G/
=85	=85-	=85	=85
0r	0ryy	2F/	2A/
.	.	2G/	2B-/
.	.	2E/	2c/
.	.	2D/	2d/
=86	=86-	=86	=86
0r	0ryy	2.F/	2.A/
.	.	4G/	4B-/
.	.	2A/	2c/
.	.	2B-\	2d/
=87	=87-	=87	=87
!	!LO:N:vis=1	!	!
0r	0r	2c\	2e/
.	.	2d\	2f/
.	.	[1A	2e/
.	.	.	[2f/
=88	=88-	=88	=88
0r	0ryy	2A/]	4f/]
.	.	.	4e/
.	.	2F/	1d
.	.	1E	.
.	.	.	2c#i/
=89	=89-	=89	=89
0r	0ryy	2r	[0d
.	.	2.D/	.
.	.	4E/	.
.	.	4F/	.
.	.	4G/	.
=90	=90-	=90	=90
0r	0ryy	2D/	0d]
.	.	2.G/	.
.	.	4F/	.
.	.	4G/	.
.	.	4A/	.
=91	=91-	=91	=91
!	!LO:N:vis=1	!	!
0r	0r	2B-\	2.d/
.	.	2c\	.
.	.	.	4e/
.	.	2A/	2f/
.	.	[2G/	2g/
=92	=92-	=92	=92
0r	0ryy	4G/]	2.d/
.	.	4A/	.
.	.	4B-\	.
.	.	4c\	4e/
.	.	2d\	2f/
.	.	2B-\	2g/
=93	=93-	=93	=93
0r	0ryy	2c\	2a/
.	.	2d\	2.b-\
.	.	2D/	.
.	.	.	4a/
.	.	[2G/	[2b-\
=94	=94-	=94	=94
0r	0ryy	2G/]	4b-\]
.	.	.	4a/
.	.	2B-\	1g
.	.	1A	.
.	.	.	2f#i/
=95	=95	=95	=95
!	!LO:N:vis=1.	!	!
1GG	[y0G	0r	[0g
[1C	.	.	.
=96	=96-	=96	=96
2C/]	0G_yy	0r	0g_
2D\	.	.	.
[1E	.	.	.
=97	=97-	=97	=97
2E\]	0G_yy	0r	0g]
2F\	.	.	.
1G	.	.	.
=98	=98-	=98	=98
1GG	0G_yy	0r	0r
[1C	.	.	.
=99	=99-	=99	=99
2C/]	0G_yy	0r	0r
2D\	.	.	.
[1E	.	.	.
=100	=100-	=100	=100
2E\]	0G]yy	0r	0r
2F\	.	.	.
1G	.	.	.
=101	=101-	=101	=101
!	!LO:N:vis=2.	!	!
[0GG	[y0B-	[0G	0r
=102	=102-	=102	=102
0GG_	0B-_yy	0G]	1r
.	.	.	[1d
=103	=103-	=103	=103
0GG]	0B-]yy	0G	2d/]
.	.	.	2d/
.	.	.	1d
=104	=104-	=104	=104
!	!LO:N:vis=2.	!	!
[0C	[y0c	1E	1.e
.	.	1C	.
.	.	.	2c/
=105	=105-	=105	=105
0C]	0c_yy	1.E	1c
.	.	.	[1g
.	.	2F/	.
=106	=106-	=106	=106
0C	0c]yy	0G	2g/]
.	.	.	4a/
.	.	.	4b-\
.	.	.	1cc
=107	=107	=107	=107
!	!LO:N:vis=1.	!	!
1GG	[y0d	1G	2b-\
.	.	.	2g/
[1D	.	1F	2b-\
.	.	.	2a/
=108	=108-	=108	=108
1D]	0d_yy	0B-	1f
1G	.	.	1g
=109	=109-	=109	=109
1F	0d_yy	0A	[0a
[1D	.	.	.
=110	=110-	=110	=110
2D\]	0d_yy	0D	1a]
2C/	.	.	.
[1BB-	.	.	1d
=111	=111-	=111	=111
2BB-/]	0d_yy	1.B-	0d
2AA/	.	.	.
2GG/	.	.	.
2FF/	.	2A/	.
=112	=112-	=112	=112
2.BB-/	0d]yy	1G	0r
4C/	.	.	.
1D	.	1F	.
=113	=113-	=113	=113
!	!LO:N:vis=2.	!	!
1E-i	0r	1c	0r
1D	.	2B-\	.
.	.	[2A/	.
=114	=114-	=114	=114
1C	0ryy	4A/]	0r
.	.	4G/	.
.	.	4F/	.
.	.	4E/	.
1BB-	.	2D/	.
.	.	[2G/	.
=115	=115-	=115	=115
0AA	0ryy	2G/]	0r
.	.	2F#i/	.
.	.	2F#i/	.
.	.	2E/	.
=116	=116-	=116	=116
!	!LO:N:vis=2.	!	!
[0GG	[y0B-	[0G	1r
.	.	.	[1d
=117	=117-	=117	=117
0GG]	0B-_yy	0G_	1d]
.	.	.	1d
=118	=118-	=118	=118
0r	0B-]yy	0G]	1d
.	.	.	[1g
=119	=119	=119	=119
!	!LO:N:vis=2.	!	!
1r	[y0G	0r	2g/]
.	.	.	2f/
1C	.	.	1e
=120	=120-	=120	=120
2BB-/	0G_yy	0r	2d/
2C/	.	.	2c/
2GG/	.	.	2d/
[2C/	.	.	[2e/
=121	=121-	=121	=121
2C/]	0G]yy	0r	2e/]
2D\	.	.	1d
1E	.	.	.
.	.	.	2c#i/
=122	=122-	=122	=122
!	!LO:N:vis=2.	!	!
1D	[y0A	2r	[0d
.	.	2F/	.
2r	.	2F/	.
2D\	.	2F/	.
=123	=123-	=123	=123
2D\	0A_yy	2F/	0d]
2D\	.	2F/	.
2D\	.	2F/	.
2D\	.	4E/	.
.	.	4D/	.
=124	=124-	=124	=124
1C	0A]yy	1E	0r
1D	.	1F	.
=125	=125-	=125	=125
!	!LO:N:vis=1.	!	!
[0GG	[y0B-	1G	1r
.	.	2D/	[1d
.	.	[2G/	.
=126	=126-	=126	=126
0GG_	0B-_yy	1G]	1d]
.	.	2D/	[1d
.	.	[2G/	.
=127	=127-	=127	=127
0GG]	0B-_yy	1G]	2d/]
.	.	.	2d/
.	.	2D/	1d
.	.	2G/	.
=128	=128-	=128	=128
1G	0B-_yy	0r	1d
2D\	.	.	[1d
[2G\	.	.	.
=129	=129-	=129	=129
1G]	0B-_yy	0r	2d/]
.	.	.	2d/
2D\	.	.	[1d
[2G\	.	.	.
=130	=130-	=130	=130
1G]	0B-]yy	0r	1d]
2D\	.	.	1d
2G\	.	.	.
=131	=131	=131	=131
!	!LO:N:vis=2.	!	!
2.C/	[y0c	2.G/	1.e
4D\	.	4F/	.
2E\	.	2G/	.
2F\	.	2A/	2c/
=132	=132-	=132	=132
2C/	0c_yy	2G/	2e/
2F\	.	2A/	2f/
2E\	.	2G/	2g/
[2A\	.	[2c\	2c/
=133	=133-	=133	=133
2A\]	0c]yy	4c\]	2e/
.	.	4B-\	.
2F\	.	1A	2f/
1E	.	.	1g
.	.	2G/	.
=134	=134-	=134	=134
!	!LO:N:vis=1.	!	!
1D	[y0d	1A	1f
2r	.	2r	2r
2G\	.	2B-\	2g/
=135	=135-	=135	=135
2G\	0d_yy	2B-\	2g/
2G\	.	2B-\	2g/
1D	.	1A	1f
=136	=136-	=136	=136
1GG	0d_yy	1G	1g
1D	.	1F	1a
=137	=137-	=137	=137
2r	0d_yy	2r	2r
2G\	.	2B-\	2d/
2G\	.	2B-\	2g/
2G\	.	2B-\	2g/
=138	=138-	=138	=138
2D\	0d_yy	1B-	2f/
2G\	.	.	2g/
2F\	.	2A/	2a/
[2G\	.	2G/	[2b-\
=139	=139-	=139	=139
1G]	0d]yy	1B-	4b-\]
.	.	.	4a/
.	.	.	1g
1D	.	1A	.
.	.	.	2f#i/
=140	=140-	=140	=140
!	!LO:N:vis=2.	!	!
[0GG	[y0B-	[0G	1g
.	.	.	1r
=141	=141-	=141	=141
0GG_	0B-_yy	0G]	1d
.	.	.	1d
=142	=142-	=142	=142
0GG]	0B-]yy	1r	2d/
.	.	.	2d/
.	.	1G	1d
=143	=143	=143	=143
!	!LO:N:vis=1.	!	!
2D\	[y0A	2F/	2d/
2D\	.	2D/	2f/
2C/	.	2E/	2e/
2D\	.	[2F/	2d/
=144	=144-	=144	=144
2AA/	0A_yy	2F/]	2c/
1D	.	2F/	2f/
.	.	2F/	2d/
2D\	.	2D/	2f/
=145	=145-	=145	=145
2C/	0A_yy	2E/	2e/
2D\	.	2F/	2d/
2AA/	.	2E/	2c/
[2D\	.	2D/	[2f/
=146	=146-	=146	=146
1D]	0A_yy	1F	2f/]
.	.	.	4e/
.	.	.	4d/
2C/	.	2E/	2e/
2D\	.	[2F/	[2d/
=147	=147-	=147	=147
[0AA	0A_yy	2F/]	2d/]
.	.	4E/	4c/
.	.	4D/	4B-/
.	.	1E	1c
=148	=148-	=148	=148
0AA]	0A]yy	2r	2r
.	.	2E/	2c/
.	.	2E/	2c/
.	.	2E/	2c/
=149	=149-	=149	=149
!	!LO:N:vis=1.	!	!
0r	0r	2F/	2d/
.	.	2E/	2c/
.	.	2F/	2d/
.	.	2G/	2B-/
=150	=150-	=150	=150
0r	0ryy	1.A	2A/
.	.	.	2f/
.	.	.	2e/
.	.	[2B-\	[2d/
=151	=151-	=151	=151
0r	0ryy	2B-\]	2d/]
.	.	2A/	2c/
.	.	1G	1B-
=152	=152-	=152	=152
2r	0ryy	0F	0A
2D\	.	.	.
2D\	.	.	.
2D\	.	.	.
=153	=153-	=153	=153
1GG	0ryy	2r	2r
.	.	2B-\	2d/
1r	.	2A/	2e/
.	.	2A/	2f/
=154	=154-	=154	=154
2r	0ryy	1G	2g/
2B-\	.	.	2d/
2A\	.	1r	2e/
2A\	.	.	2f/
=155	=155	=155	=155
!	!LO:N:vis=1	!	!
1G	0r	2r	1g
.	.	2G/	.
2C/	.	2G/	1e
2C/	.	2E/	.
=156	=156-	=156	=156
2D\	0ryy	1F	0d
2D\	.	.	.
1BB-	.	1G	.
=157	=157-	=157	=157
0AA	0ryy	0A	0c
=158	=158-	=158	=158
0F	0ryy	1r	0a
.	.	[1d	.
=159	=159-	=159	=159
!	!LO:N:vis=1	!	!
0E	0r	1d]	0g
.	.	[1c	.
=160	=160-	=160	=160
0D	0ryy	1c]	0f
.	.	[1B-	.
=161	=161-	=161	=161
0C	0ryy	1B-]	0e
.	.	[1A	.
=162	=162-	=162	=162
0BB-	0ryy	1A]	0d
.	.	[1G	.
=163	=163-	=163	=163
!	!LO:N:vis=1	!	!
0AA	0r	1G]	0r
.	.	1F#i	.
=164	=164-	=164	=164
0GG	0ryy	[0G	1r
.	.	.	[1d
=165	=165-	=165	=165
0B-	0ryy	0G]	1d]
.	.	.	[1g
=166	=166-	=166	=166
0A	0ryy	0D	1g]
.	.	.	[1f
=167	=167	=167	=167
!	!LO:N:vis=1	!	!
0G	0r	0B-	1f]
.	.	.	[1e
=168	=168-	=168	=168
0F	0ryy	0A	1e]
.	.	.	[1d
=169	=169-	=169	=169
0E	0ryy	0G	1d]
.	.	.	[1c
=170	=170-	=170	=170
0D	0ryy	0F	1c]
.	.	.	[1B-
=171	=171-	=171	=171
!	!LO:N:vis=1	!	!
0C	0r	0E	1B-]
.	.	.	[1A
=172	=172-	=172	=172
0BB-	0ryy	0D	1A]
.	.	.	1G
=173	=173-	=173	=173
[0AA	0ryy	[0C	[0A
=174	=174-	=174	=174
0AA_	0ryy	1C]	0A]
.	.	1C	.
=175	=175-	=175	=175
!	!LO:N:vis=1	!	!
0AA]	0r	2C/	0r
.	.	2D/	.
.	.	2E/	.
.	.	2F/	.
=176	=176-	=176	=176
0r	0ryy	2G/	2G/
.	.	2F/	2A/
.	.	2G/	2B-/
.	.	2E/	2c/
=177	=177-	=177	=177
0r	0ryy	2D/	2d/
.	.	2A/	2c/
.	.	2B-\	2d/
.	.	2G/	2B-/
=178	=178-	=178	=178
2r	0ryy	1F	0A
2D\	.	.	.
2D\	.	2r	.
2C/	.	2A/	.
=179	=179	=179	=179
!	!LO:N:vis=1.	!	!
2D\	0r	2A/	2r
2BB-/	.	2G/	2d/
2AA/	.	2A/	2c/
2D\	.	2F/	2d/
=180	=180-	=180	=180
2C/	0ryy	2E/	2e/
2D\	.	2A/	2f/
2GG/	.	2G/	2g/
2D\	.	2F/	[2a/
=181	=181-	=181	=181
2C/	0ryy	2E/	2a/]
1D	.	2.F/	2.b-\
.	.	4E/	4a/
2BB-/	.	[2D/	[2g/
=182	=182-	=182	=182
1AA	0ryy	2D/]	2g/]
.	.	2C/	2f#i/
2GG/	.	2D/	1g
2BB-/	.	2G/	.
=183	=183-	=183	=183
2C/	0ryy	2A/	0r
1D	.	1B-	.
4C/	.	4A/	.
4BB-/	.	4G/	.
=184	=184-	=184	=184
4C/	0ryy	4A/	0r
4BB-/	.	4G/	.
4AA/	.	4F#i/	.
4GG/	.	4E/	.
1AA	.	1F#i	.
=185	=185-	=185	=185
!	!LO:N:vis=1.	!	!
[0GG	[y0G	1G	1d
.	.	1r	2e-i/
.	.	.	[2d/
=186	=186-	=186	=186
0GG_	0G_yy	1d	2d/]
.	.	.	2.B-/
.	.	2e-i\	.
.	.	.	4c/
.	.	[2d\	2d/
=187	=187-	=187	=187
0GG]	0G_yy	2d\]	2G/
.	.	2.B-\	2d/
.	.	.	2e-i/
.	.	4c\	.
.	.	2d\	[2d/
=188	=188-	=188	=188
0r	0G_yy	2G/	2d/]
.	.	2d\	2B-/
.	.	2e-i\	2c/
.	.	[2d\	2d/
=189	=189-	=189	=189
0r	0G_yy	2d\]	2G/
.	.	2B-\	2d/
.	.	2c\	2e-i/
.	.	2d\	[2d/
=190	=190-	=190	=190
0r	0G]yy	2G/	4d/]
.	.	.	4c/
.	.	2d\	1B-
.	.	2e-i\	.
.	.	[2d\	4A/
.	.	.	4G/
=191	=191	=191	=191
!	!LO:N:vis=1.	!	!
0D	[y0F	2d\]	1A
.	.	4c\	.
.	.	4B-\	.
.	.	1A	1r
=192	=192-	=192	=192
1D	0F_yy	1r	0d
[1D	.	1A	.
=193	=193-	=193	=193
1D]	0F_yy	1A	1d
1D	.	1A	[1d
=194	=194-	=194	=194
1r	0F_yy	[0D	1d]
[1BB-	.	.	1d
=195	=195-	=195	=195
1BB-]	0F_yy	0D]	1d
1BB-	.	.	1d
=196	=196-	=196	=196
1BB-	0F]yy	1D	1d
1BB-	.	1D	1d
=197	=197-	=197	=197
!	!LO:N:vis=2.	!	!
1AA	[y0A	1E	1c
[1D	.	2D/	1f
.	.	[2F/	.
=198	=198-	=198	=198
1D]	0A_yy	4F/]	2d/
.	.	4G/	.
.	.	1A	1f
[1AA	.	.	.
.	.	4G/	[2e/
.	.	4F/	.
=199	=199-	=199	=199
1AA]	0A]yy	1E	2e/]
.	.	.	1a
1D	.	1F	.
.	.	.	[2f/
=200	=200-	=200	=200
!	!LO:N:vis=2.	!	!
1BB-	[y0B-	0D	2f/]
.	.	.	1d
1GG	.	.	.
.	.	.	[2g/
=201	=201-	=201	=201
1G	0B-_yy	0E-i	4g/]
.	.	.	4a/
.	.	.	1b-
1E-	.	.	.
.	.	.	4a/
.	.	.	4g/
=202	=202-	=202	=202
0D	0B-]yy	0F	2f/
.	.	.	2d/
.	.	.	2.f/
.	.	.	4g/
=203	=203	=203	=203
!	!LO:N:vis=2.	!	!
[0C	[y0c	[0G	[0e
=204	=204-	=204	=204
0C]	0c_yy	0G]	0e]
=205	=205-	=205	=205
0AA	0c]yy	0A	0e
=206	=206-	=206	=206
!	!LO:N:vis=2.	!	!
1r	[y0B-	0D	1f
[1BB-	.	.	[1d
=207	=207-	=207	=207
1BB-]	0B-_yy	0G	1d]
1GG	.	.	1d
=208	=208-	=208	=208
1r	0B-]yy	0d	1B-
[1G	.	.	1G
=209	=209-	=209	=209
!	!LO:N:vis=1.	!	!
1G]	[y0G	1B-	1.g
1E	.	1G	.
.	.	.	2f/
=210	=210-	=210	=210
1C	0G_yy	1c	1e
1G	.	1B-	2d/
.	.	.	[2g/
=211	=211-	=211	=211
1E	0G_yy	1G	2g/]
.	.	.	1e
1C	.	1r	.
.	.	.	2c/
=212	=212-	=212	=212
1GG	0G_yy	1d	2B-/
.	.	.	1d
1G	.	1B-	.
.	.	.	[2G/
=213	=213-	=213	=213
1E	0G_yy	1G	2G/]
.	.	.	1g
1C	.	2r	.
.	.	2G/	2e/
=214	=214-	=214	=214
2GG/	0G]yy	2B-\	2.g/
2C/	.	2c\	.
.	.	.	4f/
2BB-/	.	[1d	2d/
2GG/	.	.	2g/
=215	=215	=215	=215
!	!LO:N:vis=0	!	!
0D	[y0A;	1d]	2.f/
.	.	.	4d/
.	.	2r	2.f/
.	.	2D/	.
.	.	.	4g/
=216	=216-	=216	=216
2r	0A_yy	2.F/	1a
2D\	.	.	.
.	.	4G/	.
2F\	.	1A	2f/
2D\	.	.	[2a/
=217	=217-	=217	=217
2.F\	0A_yy	2D/	4a/]
.	.	.	4b-\
.	.	2.A/	2.cc\
4G\	.	.	.
1A	.	.	.
.	.	4B-\	4b-\
.	.	2c\	4a/
.	.	.	4g/
=218	=218-	=218	=218
[0D;l	0A_yy	2d\	[0f;l
.	.	2A/	.
.	.	2.d\	.
.	.	4c\	.
=219	=219-	=219	=219
0D]	0A]yy	0d;	0f]
=220	=220-	=220	=220
*^	*	*	*
!LO:N:vis=00	!LO:N:vis=00	!LO:N:vis=00	!	!
[0GG\l	[y0G/l	[0Gl	2.B-\	[0gl
.	.	.	4c\	.
.	.	.	2d\	.
.	.	.	[2e-i\	.
=221	=221	=221-	=221	=221
0GG_	0G_yy	0G_	2e-\]	0g_
.	.	.	4d\	.
.	.	.	4c\	.
.	.	.	[1d	.
=222	=222	=222-	=222	=222
0GG_	0G_yy	0G_	1d]	0g_
*	*	*	*^	*
.	.	.	1E-i	1B-	.
=223	=233	=223-	=223	=223	=223
0GG]	0G]yy	0G]	0D\l	0B-/l	0g]
*	*	*	*v	*v	*
*v	*v	*	*	*
==	==	==	==
*-	*-	*-	*-
!!!RDF**kern: l=long note in original notation
!!!RDF**kern: i=editorial accidental
!!!ENC:	Jesse Rodin; Victoria Chang 2012/01/27
!!!END:	2012/01/27/
!!!EED:	Jesse Rodin
!!!EEV:	2012/03/23/
!!attribution-level@Jos: 3 (tricky)
!!!ONB:	Translated from MusicXML and edited on 2012/03/23/ by Craig Sapp
!!muse2ps: T^@{OPR}^u^@{ONM}{. }@{OTL}^C^@{COA}?\n@{SCT}^i2I150v95,90,90,150c120
